X: 21192
T: Katie Scollard's
R: slide
M: 12/8
K: Gmixolydian
ABc|d2G BAG d2G BAG|d2G BAG c2G e2G|
d2G BAG d2G BAG|d=fd cBA G3:|
g|{a}g2=f d2e =f2d c2g|{a}g2=f d2e g2e a2e|
g2=f d2g =f2d c2e|d=fd cBA G3G2:|

